assets/channel_banner_desktop.svg

<svg height="427" viewBox="0 0 674.68749 112.97708" width="2550" xmlns="http://www.w3.org/2000/svg"><g fill-rule="evenodd" transform="translate(0 -184.02291)"><g fill="#6c6c6c"><path d="m283.72686 296.99999h30.94953l81.58882-112.97708h-30.949z"/><path d="m221.83555 296.99999h30.94902l81.58933-112.97708h-30.94953z"/><path d="m159.94424 296.99999h30.95005l81.58881-112.97708h-30.95004z"/><path d="m98.052928 296.99999h30.949532l81.58882-112.97708h-30.94953z"/><path d="m36.161617 296.99999h30.949532l81.589331-112.97708h-30.94953z"/><path d="m0 261.37168v35.62831h5.2193195l81.5893335-112.97708h-30.949532z"/><path d="m24.917342 184.02291h-24.917342v34.50332z"/></g><path d="m252.7794 296.99999h30.94952l81.58935-112.97708h-30.95005z" fill="#999"/><path d="m190.88809 296.99999h30.94953l81.58932-112.97708h-30.94953z" fill="#999"/><path d="m128.99678 296.99999h30.94953l81.58933-112.97708h-30.95005z" fill="#999"/><path d="m67.105463 296.99999h30.949532l81.588815-112.97708h-30.94953z" fill="#999"/><path d="m5.2141519 296.99999h30.9490161l81.589332-112.97708h-30.94953z" fill="#999"/><path d="m55.861706 184.02291h-30.949532l-24.912174 34.49557v42.8563z" fill="#999"/><path d="m531.30347 297h30.94953l81.58881-112.97709h-30.949z" fill="#6c6c6c"/><path d="m469.41216 297h30.94902l81.58932-112.97709h-30.94952z" fill="#6c6c6c"/><path d="m407.52085 297h30.95005l81.58881-112.97709h-30.95004z" fill="#6c6c6c"/><path d="m345.62386 297h30.94953l81.58882-112.97709h-30.94953z" fill="#6c6c6c"/><path d="m500.35601 297h30.94952l81.58934-112.97709h-30.95003z" fill="#999"/><path d="m438.4647 297h30.94953l81.58932-112.97709h-30.94953z" fill="#999"/><path d="m376.57339 297h30.94953l81.58933-112.97709h-30.95005z" fill="#999"/><path d="m314.67639 297h30.94953l81.58882-112.97709h-30.94953z" fill="#999"/><path d="m2475.9375 427h74.0625v-102.55469z" fill="#6c6c6c" transform="matrix(.26458333 0 0 .26458333 0 184.02291)"/><path d="m2242.0176 427h116.9765l191.0059-264.48828v-161.97851688z" fill="#6c6c6c" transform="matrix(.26458333 0 0 .26458333 0 184.02291)"/><path d="m2358.9707 427h116.9746l74.0547-102.54297v-161.97656z" fill="#999" transform="matrix(.26458333 0 0 .26458333 0 184.02291)"/><path d="m562.253 297h30.94953l81.58933-112.97709h-30.95005z" fill="#999"/></g></svg>

<?xml version="1.0" encoding="UTF-8" standalone="no"?>
<!-- Created with Inkscape (http://www.inkscape.org/) -->

<svg xmlns:dc="http://purl.org/dc/elements/1.1/" xmlns:cc="http://creativecommons.org/ns#" xmlns:rdf="http://www.w3.org/1999/02/22-rdf-syntax-ns#"
    xmlns="http://www.w3.org/2000/svg" xmlns:sodipodi="http://sodipodi.sourceforge.net/DTD/sodipodi-0.dtd"
    xmlns:inkscape="http://www.inkscape.org/namespaces/inkscape" width="2550" height="427" viewBox="0 0 674.68749 112.97708"
    version="1.1" id="svg8" inkscape:version="0.92.1 r" sodipodi:docname="channel_banner_desktop.svg"
    inkscape:export-filename="/home/the-scrabi/channel_banner.png" inkscape:export-xdpi="96"
    inkscape:export-ydpi="96">
  <defs
     id="defs2" />
  <sodipodi:namedview
     id="base"
     pagecolor="#ffffff"
     bordercolor="#666666"
     borderopacity="1.0"
     inkscape:pageopacity="0.0"
     inkscape:pageshadow="2"
     inkscape:zoom="0.1438037"
     inkscape:cx="983.1312"
     inkscape:cy="-254.76355"
     inkscape:document-units="mm"
     inkscape:current-layer="layer1"
     showgrid="false"
     units="px"
     inkscape:window-width="1920"
     inkscape:window-height="1012"
     inkscape:window-x="0"
     inkscape:window-y="32"
     inkscape:window-maximized="1" />
  <metadata
     id="metadata5">
    <rdf:RDF>
      <cc:Work
         rdf:about="">
        <dc:format>image/svg+xml</dc:format>
        <dc:type
           rdf:resource="http://purl.org/dc/dcmitype/StillImage" />
          <dc:title />
      </cc:Work>
    </rdf:RDF>
  </metadata>
  <g
     inkscape:label="Ebene 1"
     inkscape:groupmode="layer"
     id="layer1"
     transform="translate(0,-184.02291)">
    <path
       inkscape:connector-curvature="0"
       style="color:#000000;clip-rule:nonzero;display:inline;overflow:visible;visibility:visible;opacity:1;isolation:auto;mix-blend-mode:normal;color-interpolation:sRGB;color-interpolation-filters:linearRGB;solid-color:#000000;solid-opacity:1;fill:#6c6c6c;fill-opacity:1;fill-rule:evenodd;stroke:none;stroke-width:0.10828106;color-rendering:auto;image-rendering:auto;shape-rendering:auto;text-rendering:auto;enable-background:accumulate"
       d="m 283.72686,296.99999 h 30.94953 l 81.58882,-112.97708 h -30.949 z"
       id="path5067" />
    <path
       inkscape:connector-curvature="0"
       style="color:#000000;clip-rule:nonzero;display:inline;overflow:visible;visibility:visible;opacity:1;isolation:auto;mix-blend-mode:normal;color-interpolation:sRGB;color-interpolation-filters:linearRGB;solid-color:#000000;solid-opacity:1;fill:#6c6c6c;fill-opacity:1;fill-rule:evenodd;stroke:none;stroke-width:0.10828106;color-rendering:auto;image-rendering:auto;shape-rendering:auto;text-rendering:auto;enable-background:accumulate"
       d="m 221.83555,296.99999 h 30.94902 L 334.3739,184.02291 h -30.94953 z"
       id="path5063" />
    <path
       inkscape:connector-curvature="0"
       style="color:#000000;clip-rule:nonzero;display:inline;overflow:visible;visibility:visible;opacity:1;isolation:auto;mix-blend-mode:normal;color-interpolation:sRGB;color-interpolation-filters:linearRGB;solid-color:#000000;solid-opacity:1;fill:#6c6c6c;fill-opacity:1;fill-rule:evenodd;stroke:none;stroke-width:0.10828106;color-rendering:auto;image-rendering:auto;shape-rendering:auto;text-rendering:auto;enable-background:accumulate"
       d="m 159.94424,296.99999 h 30.95005 L 272.4831,184.02291 h -30.95004 z"
       id="path5059" />
    <path
       inkscape:connector-curvature="0"
       style="color:#000000;clip-rule:nonzero;display:inline;overflow:visible;visibility:visible;opacity:1;isolation:auto;mix-blend-mode:normal;color-interpolation:sRGB;color-interpolation-filters:linearRGB;solid-color:#000000;solid-opacity:1;fill:#6c6c6c;fill-opacity:1;fill-rule:evenodd;stroke:none;stroke-width:0.10828106;color-rendering:auto;image-rendering:auto;shape-rendering:auto;text-rendering:auto;enable-background:accumulate"
       d="M 98.052928,296.99999 H 129.00246 L 210.59128,184.02291 H 179.64175 Z"
       id="path5055" />
    <path
       inkscape:connector-curvature="0"
       style="color:#000000;clip-rule:nonzero;display:inline;overflow:visible;visibility:visible;opacity:1;isolation:auto;mix-blend-mode:normal;color-interpolation:sRGB;color-interpolation-filters:linearRGB;solid-color:#000000;solid-opacity:1;fill:#6c6c6c;fill-opacity:1;fill-rule:evenodd;stroke:none;stroke-width:0.10828106;color-rendering:auto;image-rendering:auto;shape-rendering:auto;text-rendering:auto;enable-background:accumulate"
       d="M 36.161617,296.99999 H 67.111149 L 148.70048,184.02291 h -30.94953 z"
       id="path5051" />
    <path
       inkscape:connector-curvature="0"
       style="color:#000000;clip-rule:nonzero;display:inline;overflow:visible;visibility:visible;opacity:1;isolation:auto;mix-blend-mode:normal;color-interpolation:sRGB;color-interpolation-filters:linearRGB;solid-color:#000000;solid-opacity:1;fill:#6c6c6c;fill-opacity:1;fill-rule:evenodd;stroke:none;stroke-width:0.10828106;color-rendering:auto;image-rendering:auto;shape-rendering:auto;text-rendering:auto;enable-background:accumulate"
       d="m 0,261.37168 v 35.62831 H 5.2193195 L 86.808653,184.02291 H 55.859121 Z"
       id="path5047" />
    <path
       inkscape:connector-curvature="0"
       style="color:#000000;clip-rule:nonzero;display:inline;overflow:visible;visibility:visible;opacity:1;isolation:auto;mix-blend-mode:normal;color-interpolation:sRGB;color-interpolation-filters:linearRGB;solid-color:#000000;solid-opacity:1;fill:#6c6c6c;fill-opacity:1;fill-rule:evenodd;stroke:none;stroke-width:0.10828106;color-rendering:auto;image-rendering:auto;shape-rendering:auto;text-rendering:auto;enable-background:accumulate"
       d="M 24.917342,184.02291 H 0 v 34.50332 z"
       id="path5045" />
    <path
       inkscape:connector-curvature="0"
       style="color:#000000;clip-rule:nonzero;display:inline;overflow:visible;visibility:visible;opacity:1;isolation:auto;mix-blend-mode:normal;color-interpolation:sRGB;color-interpolation-filters:linearRGB;solid-color:#000000;solid-opacity:1;fill:#999999;fill-opacity:1;fill-rule:evenodd;stroke:none;stroke-width:0.10828106;color-rendering:auto;image-rendering:auto;shape-rendering:auto;text-rendering:auto;enable-background:accumulate"
       d="m 252.7794,296.99999 h 30.94952 l 81.58935,-112.97708 h -30.95005 z"
       id="path5020" />
    <path
       inkscape:connector-curvature="0"
       style="color:#000000;clip-rule:nonzero;display:inline;overflow:visible;visibility:visible;opacity:1;isolation:auto;mix-blend-mode:normal;color-interpolation:sRGB;color-interpolation-filters:linearRGB;solid-color:#000000;solid-opacity:1;fill:#999999;fill-opacity:1;fill-rule:evenodd;stroke:none;stroke-width:0.10828106;color-rendering:auto;image-rendering:auto;shape-rendering:auto;text-rendering:auto;enable-background:accumulate"
       d="m 190.88809,296.99999 h 30.94953 l 81.58932,-112.97708 h -30.94953 z"
       id="path5016" />
    <path
       inkscape:connector-curvature="0"
       style="color:#000000;clip-rule:nonzero;display:inline;overflow:visible;visibility:visible;opacity:1;isolation:auto;mix-blend-mode:normal;color-interpolation:sRGB;color-interpolation-filters:linearRGB;solid-color:#000000;solid-opacity:1;fill:#999999;fill-opacity:1;fill-rule:evenodd;stroke:none;stroke-width:0.10828106;color-rendering:auto;image-rendering:auto;shape-rendering:auto;text-rendering:auto;enable-background:accumulate"
       d="m 128.99678,296.99999 h 30.94953 l 81.58933,-112.97708 h -30.95005 z"
       id="path5012" />
    <path
       inkscape:connector-curvature="0"
       style="color:#000000;clip-rule:nonzero;display:inline;overflow:visible;visibility:visible;opacity:1;isolation:auto;mix-blend-mode:normal;color-interpolation:sRGB;color-interpolation-filters:linearRGB;solid-color:#000000;solid-opacity:1;fill:#999999;fill-opacity:1;fill-rule:evenodd;stroke:none;stroke-width:0.10828106;color-rendering:auto;image-rendering:auto;shape-rendering:auto;text-rendering:auto;enable-background:accumulate"
       d="M 67.105463,296.99999 H 98.054995 L 179.64381,184.02291 h -30.94953 z"
       id="path5008" />
    <path
       inkscape:connector-curvature="0"
       style="color:#000000;clip-rule:nonzero;display:inline;overflow:visible;visibility:visible;opacity:1;isolation:auto;mix-blend-mode:normal;color-interpolation:sRGB;color-interpolation-filters:linearRGB;solid-color:#000000;solid-opacity:1;fill:#999999;fill-opacity:1;fill-rule:evenodd;stroke:none;stroke-width:0.10828106;color-rendering:auto;image-rendering:auto;shape-rendering:auto;text-rendering:auto;enable-background:accumulate"
       d="M 5.2141519,296.99999 H 36.163168 L 117.7525,184.02291 H 86.80297 Z"
       id="path5004" />
    <path
       inkscape:connector-curvature="0"
       style="color:#000000;clip-rule:nonzero;display:inline;overflow:visible;visibility:visible;opacity:1;isolation:auto;mix-blend-mode:normal;color-interpolation:sRGB;color-interpolation-filters:linearRGB;solid-color:#000000;solid-opacity:1;fill:#999999;fill-opacity:1;fill-rule:evenodd;stroke:none;stroke-width:0.10828106;color-rendering:auto;image-rendering:auto;shape-rendering:auto;text-rendering:auto;enable-background:accumulate"
       d="M 55.861706,184.02291 H 24.912174 L 0,218.51848 v 42.8563 z"
       id="path5000" />
    <path
       inkscape:connector-curvature="0"
       style="color:#000000;clip-rule:nonzero;display:inline;overflow:visible;visibility:visible;opacity:1;isolation:auto;mix-blend-mode:normal;color-interpolation:sRGB;color-interpolation-filters:linearRGB;solid-color:#000000;solid-opacity:1;fill:#6c6c6c;fill-opacity:1;fill-rule:evenodd;stroke:none;stroke-width:0.10828107;color-rendering:auto;image-rendering:auto;shape-rendering:auto;text-rendering:auto;enable-background:accumulate"
       d="M 531.30347,297 H 562.253 l 81.58881,-112.97709 h -30.949 z"
       id="path5067-3" />
    <path
       inkscape:connector-curvature="0"
       style="color:#000000;clip-rule:nonzero;display:inline;overflow:visible;visibility:visible;opacity:1;isolation:auto;mix-blend-mode:normal;color-interpolation:sRGB;color-interpolation-filters:linearRGB;solid-color:#000000;solid-opacity:1;fill:#6c6c6c;fill-opacity:1;fill-rule:evenodd;stroke:none;stroke-width:0.10828107;color-rendering:auto;image-rendering:auto;shape-rendering:auto;text-rendering:auto;enable-background:accumulate"
       d="m 469.41216,297 h 30.94902 L 581.9505,184.02291 h -30.94952 z"
       id="path5063-6" />
    <path
       inkscape:connector-curvature="0"
       style="color:#000000;clip-rule:nonzero;display:inline;overflow:visible;visibility:visible;opacity:1;isolation:auto;mix-blend-mode:normal;color-interpolation:sRGB;color-interpolation-filters:linearRGB;solid-color:#000000;solid-opacity:1;fill:#6c6c6c;fill-opacity:1;fill-rule:evenodd;stroke:none;stroke-width:0.10828107;color-rendering:auto;image-rendering:auto;shape-rendering:auto;text-rendering:auto;enable-background:accumulate"
       d="M 407.52085,297 H 438.4709 L 520.05971,184.02291 H 489.10967 Z"
       id="path5059-7" />
    <path
       inkscape:connector-curvature="0"
       style="color:#000000;clip-rule:nonzero;display:inline;overflow:visible;visibility:visible;opacity:1;isolation:auto;mix-blend-mode:normal;color-interpolation:sRGB;color-interpolation-filters:linearRGB;solid-color:#000000;solid-opacity:1;fill:#6c6c6c;fill-opacity:1;fill-rule:evenodd;stroke:none;stroke-width:0.10828107;color-rendering:auto;image-rendering:auto;shape-rendering:auto;text-rendering:auto;enable-background:accumulate"
       d="m 345.62386,297 h 30.94953 l 81.58882,-112.97709 h -30.94953 z"
       id="path5055-5" />
    <path
       inkscape:connector-curvature="0"
       style="color:#000000;clip-rule:nonzero;display:inline;overflow:visible;visibility:visible;opacity:1;isolation:auto;mix-blend-mode:normal;color-interpolation:sRGB;color-interpolation-filters:linearRGB;solid-color:#000000;solid-opacity:1;fill:#999999;fill-opacity:1;fill-rule:evenodd;stroke:none;stroke-width:0.10828107;color-rendering:auto;image-rendering:auto;shape-rendering:auto;text-rendering:auto;enable-background:accumulate"
       d="m 500.35601,297 h 30.94952 l 81.58934,-112.97709 h -30.95003 z"
       id="path5020-3" />
    <path
       inkscape:connector-curvature="0"
       style="color:#000000;clip-rule:nonzero;display:inline;overflow:visible;visibility:visible;opacity:1;isolation:auto;mix-blend-mode:normal;color-interpolation:sRGB;color-interpolation-filters:linearRGB;solid-color:#000000;solid-opacity:1;fill:#999999;fill-opacity:1;fill-rule:evenodd;stroke:none;stroke-width:0.10828107;color-rendering:auto;image-rendering:auto;shape-rendering:auto;text-rendering:auto;enable-background:accumulate"
       d="m 438.4647,297 h 30.94953 l 81.58932,-112.97709 h -30.94953 z"
       id="path5016-5" />
    <path
       inkscape:connector-curvature="0"
       style="color:#000000;clip-rule:nonzero;display:inline;overflow:visible;visibility:visible;opacity:1;isolation:auto;mix-blend-mode:normal;color-interpolation:sRGB;color-interpolation-filters:linearRGB;solid-color:#000000;solid-opacity:1;fill:#999999;fill-opacity:1;fill-rule:evenodd;stroke:none;stroke-width:0.10828107;color-rendering:auto;image-rendering:auto;shape-rendering:auto;text-rendering:auto;enable-background:accumulate"
       d="m 376.57339,297 h 30.94953 L 489.11225,184.02291 H 458.1622 Z"
       id="path5012-6" />
    <path
       inkscape:connector-curvature="0"
       style="color:#000000;clip-rule:nonzero;display:inline;overflow:visible;visibility:visible;opacity:1;isolation:auto;mix-blend-mode:normal;color-interpolation:sRGB;color-interpolation-filters:linearRGB;solid-color:#000000;solid-opacity:1;fill:#999999;fill-opacity:1;fill-rule:evenodd;stroke:none;stroke-width:0.10828107;color-rendering:auto;image-rendering:auto;shape-rendering:auto;text-rendering:auto;enable-background:accumulate"
       d="m 314.67639,297 h 30.94953 l 81.58882,-112.97709 h -30.94953 z"
       id="path5008-2" />
    <path
       style="color:#000000;clip-rule:nonzero;display:inline;overflow:visible;visibility:visible;opacity:1;isolation:auto;mix-blend-mode:normal;color-interpolation:sRGB;color-interpolation-filters:linearRGB;solid-color:#000000;solid-opacity:1;fill:#6c6c6c;fill-opacity:1;fill-rule:evenodd;stroke:none;stroke-width:0.40925127;color-rendering:auto;image-rendering:auto;shape-rendering:auto;text-rendering:auto;enable-background:accumulate"
       d="M 2475.9375 427 L 2550 427 L 2550 324.44531 L 2475.9375 427 z "
       id="path5063-6-1"
       transform="matrix(0.26458333,0,0,0.26458333,0,184.02291)" />
    <path
       style="color:#000000;clip-rule:nonzero;display:inline;overflow:visible;visibility:visible;opacity:1;isolation:auto;mix-blend-mode:normal;color-interpolation:sRGB;color-interpolation-filters:linearRGB;solid-color:#000000;solid-opacity:1;fill:#6c6c6c;fill-opacity:1;fill-rule:evenodd;stroke:none;stroke-width:0.40925127;color-rendering:auto;image-rendering:auto;shape-rendering:auto;text-rendering:auto;enable-background:accumulate"
       d="M 2242.0176 427 L 2358.9941 427 L 2550 162.51172 L 2550 0.53320312 L 2242.0176 427 z "
       id="path5059-7-2"
       transform="matrix(0.26458333,0,0,0.26458333,0,184.02291)" />
    <path
       style="color:#000000;clip-rule:nonzero;display:inline;overflow:visible;visibility:visible;opacity:1;isolation:auto;mix-blend-mode:normal;color-interpolation:sRGB;color-interpolation-filters:linearRGB;solid-color:#000000;solid-opacity:1;fill:#999999;fill-opacity:1;fill-rule:evenodd;stroke:none;stroke-width:0.40925127;color-rendering:auto;image-rendering:auto;shape-rendering:auto;text-rendering:auto;enable-background:accumulate"
       d="M 2358.9707 427 L 2475.9453 427 L 2550 324.45703 L 2550 162.48047 L 2358.9707 427 z "
       id="path5016-5-0"
       transform="matrix(0.26458333,0,0,0.26458333,0,184.02291)" />
    <path
       inkscape:connector-curvature="0"
       style="color:#000000;clip-rule:nonzero;display:inline;overflow:visible;visibility:visible;opacity:1;isolation:auto;mix-blend-mode:normal;color-interpolation:sRGB;color-interpolation-filters:linearRGB;solid-color:#000000;solid-opacity:1;fill:#999999;fill-opacity:1;fill-rule:evenodd;stroke:none;stroke-width:0.10828107;color-rendering:auto;image-rendering:auto;shape-rendering:auto;text-rendering:auto;enable-background:accumulate"
       d="m 562.253,297 h 30.94953 l 81.58933,-112.97709 h -30.95005 z"
       id="path5012-6-9" />
  </g>
</svg>
